assets/Station/Flat/station_flat.svg

<svg width="32" height="32" viewBox="0 0 32 32" fill="none" xmlns="http://www.w3.org/2000/svg">
<path d="M7.47728 24.9005C6.87034 25.7633 6.3564 26.4938 6.29139 26.6067C6.26995 26.644 6.24652 26.6826 6.22232 26.7224C6.04002 27.0225 5.81376 27.3951 6.06029 27.8201C6.32658 28.2792 6.90808 28.2743 7.07841 28.2728C7.0867 28.2728 7.09402 28.2727 7.10028 28.2727H21.9105C22.2283 28.2727 22.6135 28.2534 22.8638 27.926C23.1142 27.5986 23.1335 27.2038 22.7964 26.6646C22.6415 26.4167 21.8364 25.2153 21.0643 24.0631C20.4925 23.2098 19.9388 22.3835 19.6807 21.9916L9.49536 21.9916C9.14209 22.534 8.23685 23.8208 7.47728 24.9005ZM9.30886 24.9961C9.36985 24.8934 9.55196 24.59 9.61359 24.4898C9.69063 24.3647 10.0461 23.9893 10.4987 23.9893H18.515C18.9098 23.9893 19.2046 24.2202 19.3876 24.4898C19.4886 24.6387 19.5716 24.7973 19.625 24.8992L19.625 24.8992L19.625 24.8992C19.649 24.9449 19.667 24.9792 19.6779 24.9961H9.30886ZM8.00639 26.9869C8.06417 26.9098 8.20091 26.7211 8.28565 26.5825C8.39157 26.4091 8.90313 25.9863 9.35572 25.9863H19.9045C20.1163 25.9863 20.4292 26.1041 20.5689 26.3137C20.646 26.4293 20.9431 26.8777 21.0137 26.9869H8.00639Z" fill="#321B41"/>
<path d="M8.98 3C8.44 3 8 3.44898 8 4L7.92887 4C6.85949 4 6 4.85 6 5.91V16C6 18.22 7.81893 20.01 10.0676 20.01H18.9324C21.1811 20.01 23 18.22 23 16V5.91C23 4.85 22.1305 4 21.0611 4L21 4C21 3.44898 20.56 3 20.02 3H8.98Z" fill="#D3D3D3"/>
<path d="M24.4306 20.01C23.1607 20.01 22.5208 21.55 23.4207 22.45L30 29V25.95V20L24.4306 20.01Z" fill="#EFD5FF"/>
<path d="M30 12.02V8.98C30 8.44 29.56 8 29.02 8H25.98C25.44 8 25 8.44 25 8.98V12.02C25 12.56 25.44 13 25.98 13H29.02C29.56 13 30 12.56 30 12.02ZM23 18.99V16H6V18.99C6 21.21 7.81893 23 10.0676 23H18.9324C21.1811 23 23 21.21 23 18.99Z" fill="#00A6ED"/>
<path d="M21 8.45V16.55C21 17.9 19.9 19 18.55 19H10.45C9.1 19 8 17.9 8 16.55V8.45C8 7.1 9.1 6 10.45 6H18.55C19.9 6 21 7.1 21 8.45Z" fill="#26EAFC"/>
<path d="M21 8.45V9H8V8.45C8 7.1 9.1 6 10.45 6H18.55C19.9 6 21 7.1 21 8.45ZM27.5 21C27.22 21 27 20.78 27 20.5V12.9961H28V20.5C28 20.78 27.78 21 27.5 21ZM8 16V18.55C8 19.9 9.1 21 10.45 21H18.55C19.9 21 21 19.9 21 18.55V16H8Z" fill="#636363"/>
<path d="M18.5 8H10.5C10.22 8 10 7.78 10 7.5C10 7.22 10.22 7 10.5 7H18.5C18.78 7 19 7.22 19 7.5C19 7.78 18.78 8 18.5 8Z" fill="#D3D3D3"/>
<path d="M30 6.98V9H25V6.98C25 6.44 25.44 6 25.98 6H29.02C29.56 6 30 6.44 30 6.98ZM13 19H11C10.45 19 10 18.55 10 18C10 17.45 10.45 17 11 17H13C13.55 17 14 17.45 14 18C14 18.56 13.56 19 13 19ZM16 19H18C18.56 19 19 18.56 19 18C19 17.45 18.55 17 18 17H16C15.45 17 15 17.45 15 18C15 18.55 15.45 19 16 19Z" fill="#ED9200"/>
</svg>

<svg xmlns="http://www.w3.org/2000/svg" width="32" height="32" fill="none"><path fill="#321B41" d="M7.477 24.9c-.607.863-1.12 1.594-1.186 1.707a5.559 5.559 0 0 1-.069.115c-.182.3-.408.673-.162 1.098.267.46.848.454 1.018.453H21.91c.318 0 .703-.02.954-.347.25-.327.27-.722-.068-1.261-.154-.248-.96-1.45-1.732-2.602-.572-.853-1.125-1.68-1.383-2.071H9.495c-.353.542-1.258 1.829-2.018 2.909Zm1.832.096c.06-.103.243-.406.305-.506.077-.125.432-.5.885-.5h8.016c.395 0 .69.23.873.5.1.149.184.307.237.41.024.045.042.08.053.096H9.308Zm-1.303 1.99c.058-.076.195-.265.28-.404.106-.173.617-.596 1.07-.596h10.548c.212 0 .525.118.665.328l.445.673H8.006Z"/><path fill="#D3D3D3" d="M8.98 3C8.44 3 8 3.449 8 4h-.071C6.859 4 6 4.85 6 5.91V16c0 2.22 1.819 4.01 4.068 4.01h8.864C21.182 20.01 23 18.22 23 16V5.91C23 4.85 22.13 4 21.061 4H21c0-.551-.44-1-.98-1H8.98Z"/><path fill="#EFD5FF" d="M24.43 20.01c-1.27 0-1.91 1.54-1.01 2.44L30 29v-9l-5.57.01Z"/><path fill="#00A6ED" d="M30 12.02V8.98c0-.54-.44-.98-.98-.98h-3.04c-.54 0-.98.44-.98.98v3.04c0 .54.44.98.98.98h3.04c.54 0 .98-.44.98-.98Zm-7 6.97V16H6v2.99C6 21.21 7.819 23 10.068 23h8.864C21.182 23 23 21.21 23 18.99Z"/><path fill="#26EAFC" d="M21 8.45v8.1C21 17.9 19.9 19 18.55 19h-8.1C9.1 19 8 17.9 8 16.55v-8.1C8 7.1 9.1 6 10.45 6h8.1C19.9 6 21 7.1 21 8.45Z"/><path fill="#636363" d="M21 8.45V9H8v-.55C8 7.1 9.1 6 10.45 6h8.1C19.9 6 21 7.1 21 8.45ZM27.5 21c-.28 0-.5-.22-.5-.5v-7.504h1V20.5c0 .28-.22.5-.5.5ZM8 16v2.55C8 19.9 9.1 21 10.45 21h8.1C19.9 21 21 19.9 21 18.55V16H8Z"/><path fill="#D3D3D3" d="M18.5 8h-8c-.28 0-.5-.22-.5-.5s.22-.5.5-.5h8c.28 0 .5.22.5.5s-.22.5-.5.5Z"/><path fill="#ED9200" d="M30 6.98V9h-5V6.98c0-.54.44-.98.98-.98h3.04c.54 0 .98.44.98.98ZM13 19h-2c-.55 0-1-.45-1-1s.45-1 1-1h2c.55 0 1 .45 1 1 0 .56-.44 1-1 1Zm3 0h2c.56 0 1-.44 1-1 0-.55-.45-1-1-1h-2c-.55 0-1 .45-1 1s.45 1 1 1Z"/></svg>
